!!!!SEGMENT: pl-sa--530-a-ix-10--004_anonim--instrumental-piece.krn
!!!cenid: 17xx:2018
!!!COM: Anonim
!!!COM-rismid: pe30004985
!!!CDT:
!!!CNT:
!!!OTL: [Instrumental piece]
!!!PDT:
!!!AGN: Secular
!!!SMS-siglum: PL-SA
!!!SMS-shelfmark: 530/A IX 10
!!!SMS-shelfwork: 004 W
!!!SMS-variant:
!!!SMS-altvar:
!!!NIFC-rismid: 1001092506
!!!URL-scan: http://bc.bdsandomierz.pl/dlibra/publication/1422/edition/1390/content
!!!ONB-nifc: UWAGA: 4tum
**kern	**kern	**kern
*all\right	*all\right	*all\right
*part3	*part2	*part1
*staff3	*staff2	*staff1
*I"Baſso	*I"Violino 2do	*I"Violino Primo
*I'bc	*I'vl 2	*I'vl 1
*	*Ivioln	*Ivioln
*	*ICstr	*ICstr
*IGcont	*	*
*clefF4	*clefG2	*clefG2
*Trd0c0	*	*
*k[f#c#]	*k[f#c#]	*k[f#c#]
*G:	*G:	*G:
*M2/4	*M2/4	*M2/4
=1	=1	=1
*all\right	*all\right	*all\right
!LO:TX:i:t=Allo	!LO:TX:i:t=Allo	!LO:TX:i:t=allo
!LO:TX:i:t=4tum	!LO:TX:i:t=4tum	!LO:TX:i:t=4tum
!	!	!LO:TX:t=P:problem:mixed beam
4d\	4dd/ 4d/	8dd\L
.	.	16d/L
.	.	16d/JJ
4r	4r	16f#/LL
.	.	16f#/
.	.	16a/
.	.	16a/JJ
=2	=2	=2
!	!LO:TX:t=P:problem:mixed beam	!LO:TX:t=P:problem:mixed beam
4d\	8dd\L	8dd\L
.	16d/L	16f#/L
.	16d/JJ	16f#/JJ
4r	16f#/LL	16a\LL
.	16f#/	16a\
.	16a/	16dd\
.	16a/JJ	16dd\JJ
=3	=3	=3
!	!LO:TX:t=P:problem:mixed beam	!LO:TX:t=P:problem:mixed beam
8d\L	8dd\L	8ff#\L
16D\L	16f#/L	16a/L
16D\JJ	16f#/JJ	16a/JJ
16F#\LL	16a\LL	16dd\LL
16F#\	16a\	16dd\
16A\	16dd\	16ff#\
16A\JJ	16dd\JJ	16ff#\JJ
=4	=4	=4
4d\	4ff#\	4aa\
8d\L	16ff#\LL	16aa\LL
.	16ee\	16gg\
8A\J	16dd\	16ff#\
.	16cc#\JJ	16ee\JJ
=5	=5	=5
4d\	8dd\L	8ff#\L
.	8a\	8dd\
4r	8dd\	8ff#\
.	8ee\J	8aa\J
!	!	!LO:LB:g=original
=6	=6	=6
4d\	4ff#\	4aa\
8d\L	16ff#\LL	16aa\LL
.	16ee\	16gg\
8A\J	16dd\	16ff#\
.	16cc#\JJ	16ee\JJ
=7	=7	=7
8d\L	4dd\	4ff#\
8A\J	.	.
4D\	4r	4r
!	!LO:LB:g=original	!
=8	=8	=8
*	*	*2\right
8A\L	8cc#\L	2aaT\
8c#\	8ee\	.
8A\	8cc#\	.
8c#\J	8ee\J	.
=9	=9	=9
8A\L	8dd\L	2aaT\
8d\J	8ff#\J	.
.	8qqgg/	.
8d\L	8ff#\L	.
16c#\L	16ee\L	.
16B\JJ	16dd\JJ	.
=10	=10	=10
8A\L	8cc#\L	2aa\
8c#\	8ee\	.
8A\	8cc#\	.
8c#\J	8ee\J	.
=11	=11	=11
8A\L	8dd\L	8ff#\L
8d\J	8ff#\J	8aa\J
8d\L	4dd\	4ff#\
16c#\L	.	.
16B\JJ	.	.
!LO:LB:g=original	!	!
=12	=12	=12
8d\L	8f#/L	2dd\
8D\	8a/	.
8D\	8f#/	.
8F#\J	8a/J	.
=13	=13	=13
8D\L	8g/L	2dd\
8G\J	8b/J	.
8G\L	16ccn/LL	.
.	16b/	.
16F#\L	16a/	.
16E\JJ	16g/JJ	.
=14	=14	=14
8D\L	8f#/L	2dd\
8F#\	8a/	.
8D\	8f#/	.
8F#\J	8a/J	.
=15	=15	=15
!LO:TX:t=P:problem:mixed beam	!	!
8GG/L	8g/L	8b\L
8G\J	8b/J	8dd\J
4GG/	4g/	4b\
=16||	=16||	=16||
*k[f#]	*k[f#]	*k[f#]
*M3/4	*M3/4	*M3/4
!LO:TX:i:t=Lente	!LO:TX:i:t=Lente	!LO:TX:i:t=Lente
!	!LO:TX:t=P:problem:znaki[f# ff#]	!LO:TX:t=P:problem:znaki[f# ff#]
4G\	8b\L	8dd\L
.	16b\L	16gg\L
.	16a\JJ	16ff#\JJ
4GG/	8b\L	8gg\L
.	8b\J	8dd\J
4C/	4cc\	4ee\
=17	=17	=17
4D\	8b\L	8dd\L
.	16g\L	16b\L
.	16b\JJ	16dd\JJ
4D\	8a/L	8cc\L
.	16f#/L	16a\L
.	16a/JJ	16cc\JJ
.	8qqa/	8qqcc/
4G\	4g/	4b\
!	!	!LO:LB:g=original
=18	=18	=18
!	!LO:TX:t=P:problem:mixed beam	!
4G\	8g\L	8b\L
.	8b\	8dd\
4r	8g/	8b\
.	8d/J	8g\J
!	!LO:LB:g=original	!
4D\	8c/L	8a/L
.	8A/J	8f#/J
=19	=19	=19
!LO:TX:t=P:problem:mixed beam	!	!
8GG/L	4B/	4g/
8G\	.	.
8GG/	8B/L	8g/L
8G\	8d/	8b/
8GG/	8B/	8g/
8G\J	8d/J	8b/J
=20	=20	=20
4GG/	4gg/ 4b/ 4d/ 4G/	4gg/ 4b/ 4d/ 4G/
4r	4r	4r
4ryy	4r	4ryy
==	==	==
*-	*-	*-
!!!system-decoration: [(*)]
!!!ENC: Andrzej Gręziak
!!!END: 2021-05-28
!!!EED: Andrzej Borzym
!!!EST: 2022-01-13
